X: 0
T: The Holly And The Ivy
L: 1/4
M: 6/8
Q: 1/4=100
K: F
[V: P1]  D/ | A A/ (A/G/) A/ | B3/ A D/ | (E/F/) G/ (F/E/) F/ | (D3/ D) D/ | A A/ A d/ | c/ c/ B/ A ^G/ | A =B/ c B/ | (A3/ A)z/ | E F/ G A/ | G F/ E A/ | (A/G/) A/ (A/G/) F/ | (E3/ E) A/ | =B B/ ^c c/ | d/d/A/ A d/ | (d/c/B/) (A/G/) ^F/ | (G3/ G) B/ | (A/B/) G/ F E/ | (D3/ D)|]

